Origami/64x64/apps/adventure-capitalist.svg

<svg width="64" height="64" version="1.1" xmlns="http://www.w3.org/2000/svg">
 <path d="m23.830078 9.0664362 0.222656 0.00586s-3.863831-0.2793152-7.996093 1.2128908c-2.066132 0.746102-4.328385 1.984087-6.119141 4.123046-1.7907562 2.138959-2.9375 5.165539-2.9375 8.638672s1.1467437 6.49776 2.9375 8.636719c1.790756 2.138959 4.053009 3.378897 6.119141 4.125 4.132262 1.492205 7.996093 1.210937 7.996093 1.210937l-0.222656 0.0059h17.109375a4.0004 4.0004 0 0 0 0.236328 -0.0059s2.305673-0.06827 4.359375 0.720703c2.053703 0.788969 3.464844 1.423328 3.464844 5.265625 0 3.842299-1.411141 4.476657-3.464844 5.265625-2.053702 0.788969-4.359375 0.720704-4.359375 0.720704a4.0004 4.0004 0 0 0 -0.236328 -0.0078h-24.939453a4.0004 4.0004 0 1 0 0 8h24.939453l-0.236328-0.0059s3.724416 0.287511 7.701172-1.240235c3.976755-1.527718 8.595703-5.88216 8.595703-12.732394 0-6.850232-4.618948-11.206629-8.595703-12.734375-3.976755-1.527745-7.701172-1.238281-7.701172-1.238281l0.236328-0.0078h-17.109375a4.0004 4.0004 0 0 0 -0.220703 0.0059s-2.552682 0.07646-4.835937-0.748047c-1.141628-0.412307-2.086109-0.999769-2.701172-1.734428-0.615063-0.734658-1.072266-1.628821-1.072266-3.501953 0-1.873133 0.457203-2.769248 1.072266-3.503906 0.615063-0.734659 1.559544-1.322121 2.701172-1.734375 2.283255-0.824509 4.835937-0.748047 4.835937-0.748047a4.0004 4.0004 0 0 0 0.220703 0.0059h24.169922a4.0004 4.0004 0 1 0 0 -7.9999998h-24.169922z" style="opacity:.2"/>
 <path d="m32.941406 2.9443427a4.0004 4.0004 0 0 0 -3.941406 4.0546873v49.089844 2.910156a4.0004 4.0004 0 1 0 8 0v-2.910156-49.089844a4.0004 4.0004 0 0 0 -4.058594 -4.0546873z" style="fill-rule:evenodd;opacity:.2"/>
 <path d="m16 51.98523h24.939084s12.060916 0.712836 12.060916-9.979696c0-10.69253-12.060916-9.979694-12.060916-9.979694h-17.108048s-12.831036 0.712836-12.831036-9.979694c0-10.692531 12.831036-9.979695 12.831036-9.979695h24.168964" style="fill:none;stroke-linecap:round;stroke-linejoin:round;stroke-width:8;stroke:#ffc73a"/>
 <path d="m33 6v49.09169 2.90831" style="fill:none;stroke-linecap:round;stroke-linejoin:round;stroke-width:8;stroke:#ffc73a"/>
 <path d="M 32.939453,1.9433595 A 4.0004,4.0004 0 0 0 29,6 l 0,1 A 4.0004,4.0004 0 0 1 32.939453,2.9433594 4.0004,4.0004 0 0 1 37,7 L 37,6 A 4.0004,4.0004 0 0 0 32.939453,1.9433595 Z" style="fill-rule:evenodd;fill:#ffffff;opacity:.2"/>
 <path d="m23.384766 8.0527344c-1.280403-0.0086103-4.228929 0.1132675-7.328125 1.2324218-2.066132 0.7461018-4.328385 1.9840878-6.119141 4.1230468-1.7907562 2.138959-2.9375 5.165539-2.9375 8.638672 0 0.169434 0.0160845 0.332752 0.0214844 0.5 0.1052894-3.261257 1.2126199-6.10406 2.9160156-8.138672 1.790756-2.138959 4.053009-3.376945 6.119141-4.123047 3.821135-1.3798544 7.275744-1.2468928 7.794921-1.2187498h24.148438a4.0004 4.0004 0 0 1 4.021484 3.4882818 4.0004 4.0004 0 0 0 -4.021484 -4.4882818h-24.148438c-0.098089-0.0053171-0.168535-0.0116661-0.466796-0.0136718zm-8.351563 14.494141c-0.009068 0.170508-0.033203 0.310297-0.033203 0.5 0 1.873132 0.457203 2.767295 1.072266 3.501953 0.615063 0.734659 1.559544 1.322068 2.701172 1.734375 2.283255 0.824507 4.835937 0.748047 4.835937 0.748047a4.0004 4.0004 0 0 1 0.220703 -0.005859h17.107422c0.593714-0.032125 3.854574-0.14161 7.466797 1.246093 3.877796 1.489729 8.353237 5.675836 8.574219 12.234375 0.005639-0.167367 0.021484-0.329536 0.021484-0.5 0-6.850232-4.618948-11.206629-8.595703-12.734375-3.612223-1.387703-6.873083-1.278218-7.466797-1.246093h-17.107422a4.0004 4.0004 0 0 0 -0.220703 0.005859s-2.552682 0.07646-4.835937-0.748047c-1.141628-0.412307-2.086109-0.999716-2.701172-1.734375-0.552772-0.660255-0.958594-1.48918-1.039063-3.001953zm33.941406 19.958984c-0.127766 3.37024-1.484729 4.014682-3.439453 4.765625-2.053702 0.788969-4.359375 0.720704-4.359375 0.720704a4.0004 4.0004 0 0 0 -0.236328 -0.007813h-24.939453a4.0004 4.0004 0 0 0 -4.021484 4.511719 4.0004 4.0004 0 0 1 4.021484 -3.511719h24.939453a4.0004 4.0004 0 0 1 0.236328 0.007813s2.305673 0.068265 4.359375-0.720704c2.053703-0.788968 3.464844-1.423326 3.464844-5.265625 0-0.185181-0.018921-0.329345-0.025391-0.5z" style="fill:#ffffff;opacity:.2"/>
</svg>

<svg xmlns="http://www.w3.org/2000/svg" width="64" height="64" version="1.1">
 <path style="opacity:0.2" d="m 23.830078,9.0664362 0.222656,0.00586 c 0,0 -3.863831,-0.2793152 -7.996093,1.2128908 C 13.990509,11.031289 11.728256,12.269274 9.9375,14.408233 8.1467438,16.547192 7,19.573772 7,23.046905 c 0,3.473133 1.1467437,6.49776 2.9375,8.636719 1.790756,2.138959 4.053009,3.378897 6.119141,4.125 4.132262,1.492205 7.996093,1.210937 7.996093,1.210937 l -0.222656,0.0059 17.109375,0 a 4.0004,4.0004 0 0 0 0.236328,-0.0059 c 0,0 2.305673,-0.06827 4.359375,0.720703 C 47.588859,38.529233 49,39.163592 49,43.005889 c 0,3.842299 -1.411141,4.476657 -3.464844,5.265625 -2.053702,0.788969 -4.359375,0.720704 -4.359375,0.720704 a 4.0004,4.0004 0 0 0 -0.236328,-0.0078 l -24.939453,0 a 4.0004,4.0004 0 1 0 0,8 l 24.939453,0 -0.236328,-0.0059 c 0,0 3.724416,0.287511 7.701172,-1.240235 C 52.381052,54.210565 57,49.856123 57,43.005889 57,36.155657 52.381052,31.79926 48.404297,30.271514 44.427542,28.743769 40.703125,29.033233 40.703125,29.033233 l 0.236328,-0.0078 -17.109375,0 a 4.0004,4.0004 0 0 0 -0.220703,0.0059 c 0,0 -2.552682,0.07646 -4.835937,-0.748047 C 17.63181,27.870979 16.687329,27.283517 16.072266,26.548858 15.457203,25.8142 15,24.920037 15,23.046905 c 0,-1.873133 0.457203,-2.769248 1.072266,-3.503906 0.615063,-0.734659 1.559544,-1.322121 2.701172,-1.734375 2.283255,-0.824509 4.835937,-0.748047 4.835937,-0.748047 a 4.0004,4.0004 0 0 0 0.220703,0.0059 l 24.169922,0 a 4.0004,4.0004 0 1 0 0,-7.9999998 l -24.169922,0 z"/>
 <path style="opacity:0.2;fill-rule:evenodd" d="M 32.941406,2.9443427 A 4.0004,4.0004 0 0 0 29,6.99903 l 0,49.089844 0,2.910156 a 4.0004,4.0004 0 1 0 8,0 L 37,56.088874 37,6.99903 A 4.0004,4.0004 0 0 0 32.941406,2.9443427 Z"/>
 <path style="fill:none;stroke:#ffc73a;stroke-width:8;stroke-linecap:round;stroke-linejoin:round" d="m 16,51.98523 24.939084,0 C 40.939084,51.98523 53,52.698066 53,42.005534 53,31.313004 40.939084,32.02584 40.939084,32.02584 l -17.108048,0 c 0,0 -12.831036,0.712836 -12.831036,-9.979694 0,-10.692531 12.831036,-9.979695 12.831036,-9.979695 l 24.168964,0"/>
 <path style="fill:none;stroke:#ffc73a;stroke-width:8;stroke-linecap:round;stroke-linejoin:round" d="M 33,6 33,55.09169 33,58"/>
 <path style="opacity:0.2;fill:#ffffff;fill-rule:evenodd" d="M 32.939453,1.9433595 A 4.0004,4.0004 0 0 0 29,6 l 0,1 A 4.0004,4.0004 0 0 1 32.939453,2.9433594 4.0004,4.0004 0 0 1 37,7 L 37,6 A 4.0004,4.0004 0 0 0 32.939453,1.9433595 Z"/>
 <path style="opacity:0.2;fill:#ffffff" d="M 23.384766 8.0527344 C 22.104363 8.0441241 19.155837 8.1660019 16.056641 9.2851562 C 13.990509 10.031258 11.728256 11.269244 9.9375 13.408203 C 8.1467438 15.547162 7 18.573742 7 22.046875 C 7 22.216309 7.0160845 22.379627 7.0214844 22.546875 C 7.1267738 19.285618 8.2341043 16.442815 9.9375 14.408203 C 11.728256 12.269244 13.990509 11.031258 16.056641 10.285156 C 19.877776 8.9053016 23.332385 9.0382632 23.851562 9.0664062 L 48 9.0664062 A 4.0004 4.0004 0 0 1 52.021484 12.554688 A 4.0004 4.0004 0 0 0 48 8.0664062 L 23.851562 8.0664062 C 23.753473 8.0610891 23.683027 8.0547401 23.384766 8.0527344 z M 15.033203 22.546875 C 15.024135 22.717383 15 22.857172 15 23.046875 C 15 24.920007 15.457203 25.81417 16.072266 26.548828 C 16.687329 27.283487 17.63181 27.870896 18.773438 28.283203 C 21.056693 29.10771 23.609375 29.03125 23.609375 29.03125 A 4.0004 4.0004 0 0 1 23.830078 29.025391 L 40.9375 29.025391 C 41.531214 28.993266 44.792074 28.883781 48.404297 30.271484 C 52.282093 31.761213 56.757534 35.94732 56.978516 42.505859 C 56.984155 42.338492 57 42.176323 57 42.005859 C 57 35.155627 52.381052 30.79923 48.404297 29.271484 C 44.792074 27.883781 41.531214 27.993266 40.9375 28.025391 L 23.830078 28.025391 A 4.0004 4.0004 0 0 0 23.609375 28.03125 C 23.609375 28.03125 21.056693 28.10771 18.773438 27.283203 C 17.63181 26.870896 16.687329 26.283487 16.072266 25.548828 C 15.519494 24.888573 15.113672 24.059648 15.033203 22.546875 z M 48.974609 42.505859 C 48.846843 45.876099 47.48988 46.520541 45.535156 47.271484 C 43.481454 48.060453 41.175781 47.992188 41.175781 47.992188 A 4.0004 4.0004 0 0 0 40.939453 47.984375 L 16 47.984375 A 4.0004 4.0004 0 0 0 11.978516 52.496094 A 4.0004 4.0004 0 0 1 16 48.984375 L 40.939453 48.984375 A 4.0004 4.0004 0 0 1 41.175781 48.992188 C 41.175781 48.992188 43.481454 49.060453 45.535156 48.271484 C 47.588859 47.482516 49 46.848158 49 43.005859 C 49 42.820678 48.981079 42.676514 48.974609 42.505859 z"/>
</svg>
